components/brave_wallet_ui/page/screens/swap/assets/lp-icons/sushiswap.svg

<svg xmlns="http://www.w3.org/2000/svg" xmlns:xlink="http://www.w3.org/1999/xlink" xml:space="preserve" style="enable-background:new 0 0 24 24" viewBox="0 0 24 24"><defs><path id="a" d="M0 0h24v24H0z"/></defs><clipPath id="b"><use xlink:href="#a" style="overflow:visible"/></clipPath><g style="clip-path:url(#b)"><linearGradient id="c" x1="20.644" x2="24.333" y1="1011.506" y2="998.84" gradientTransform="matrix(1 0 0 -1 -12 1012)" gradientUnits="userSpaceOnUse"><stop offset="0" style="stop-color:#03b8ff"/><stop offset="1" style="stop-color:#fa52a0"/></linearGradient><path d="M5 2.3 23.6 15 19 21.8.4 9 5 2.3z" style="fill:url(#c)"/><linearGradient id="d" x1="23.682" x2="27.37" y1="1012.39" y2="999.724" gradientTransform="matrix(1 0 0 -1 -12 1012)" gradientUnits="userSpaceOnUse"><stop offset="0" style="stop-color:#03b8ff"/><stop offset="1" style="stop-color:#fa52a0"/></linearGradient><path d="M23.6 15c-1.6 2.3-7 1.4-12.1-2.2C6.3 9.3 3.5 4.6 5 2.3 6.6 0 12 .9 17.1 4.5c5.2 3.4 8 8.2 6.5 10.5z" style="fill:url(#d)"/><linearGradient id="e" x1="17.616" x2="21.305" y1="1010.624" y2="997.958" gradientTransform="matrix(1 0 0 -1 -12 1012)" gradientUnits="userSpaceOnUse"><stop offset="0" style="stop-color:#03b8ff"/><stop offset="1" style="stop-color:#fa52a0"/></linearGradient><path d="M19 21.7c-1.6 2.3-7 1.4-12.1-2.2s-8-8.2-6.4-10.6c1.6-2.3 7-1.4 12.1 2.2s7.9 8.3 6.4 10.6z" style="fill:url(#e)"/><path d="M23.6 15 19 21.8c-1.6 2.3-7 1.3-12.1-2.2-1-.7-1.9-1.4-2.8-2.2.7-.1 1.6-.5 2.5-1.5 1.6-1.7 2.4-2.1 3.1-2 .7 0 1.5.7 2.8 2.4 1.3 1.7 3.1 2.2 4.2 1.3.1-.1.2-.1.3-.2.9-.7 1.2-1 2.9-4.2.4-.8 1.8-2.1 3.7-1.5.5 1.3.5 2.4 0 3.3z" style="fill:#0e0f23"/><path d="M22.9 14.6c-1.4 2-6.3 1-11-2.3C7.1 9 4.3 4.8 5.7 2.8s6.3-1 11 2.3 7.5 7.5 6.2 9.5zm-4.4-3c-.7 1-3.1.5-5.5-1.1-2.3-1.6-3.7-3.7-3-4.7.7-1 3.1-.5 5.5 1.1 2.3 1.6 3.7 3.7 3 4.7z" style="fill-rule:evenodd;clip-rule:evenodd;fill:#fff"/><path d="M4.6 4.6c0-.1-.1-.2-.2-.1s-.2.1-.2.2c.1.3.2.5.2.7 0 .1.1.2.2.1.1 0 .2-.1.1-.2 0-.2 0-.4-.1-.7zm.5 1.6c0-.1-.1-.2-.2-.1s-.1.1-.1.2c1.1 2.5 3.4 5.2 6.4 7.2.1.1.2 0 .3 0 .1-.1 0-.2 0-.3-3.1-2-5.3-4.6-6.4-7zM17.2 16c-.1 0-.2 0-.2.1s0 .2.1.2c.3.1.7.2 1 .3.1 0 .2 0 .2-.1s0-.2-.1-.2c-.3-.1-.7-.2-1-.3zm1.8.4c-.1 0-.2.1-.2.2s.1.2.2.2c.8.1 1.7.2 2.4.1.1 0 .2-.1.2-.2s-.1-.2-.2-.2c-.8.1-1.6 0-2.4-.1z" style="fill:#fff"/></g></svg>

<?xml version="1.0" encoding="utf-8"?>
<!-- Generator: Adobe Illustrator 24.0.0, SVG Export Plug-In . SVG Version: 6.00 Build 0)  -->
<svg version="1.1" id="Layer_1" xmlns="http://www.w3.org/2000/svg" xmlns:xlink="http://www.w3.org/1999/xlink" x="0px" y="0px"
	 viewBox="0 0 24 24" style="enable-background:new 0 0 24 24;" xml:space="preserve">
<style type="text/css">
	.st0{clip-path:url(#SVGID_2_);}
	.st1{fill:url(#SVGID_3_);}
	.st2{fill:url(#SVGID_4_);}
	.st3{fill:url(#SVGID_5_);}
	.st4{fill:#0E0F23;}
	.st5{fill-rule:evenodd;clip-rule:evenodd;fill:#FFFFFF;}
	.st6{fill:#FFFFFF;}
</style>
<g>
	<defs>
		<rect id="SVGID_1_" width="24" height="24"/>
	</defs>
	<clipPath id="SVGID_2_">
		<use xlink:href="#SVGID_1_"  style="overflow:visible;"/>
	</clipPath>
	<g class="st0">
		
			<linearGradient id="SVGID_3_" gradientUnits="userSpaceOnUse" x1="20.6442" y1="1011.5057" x2="24.3328" y2="998.8395" gradientTransform="matrix(1 0 0 -1 -12 1012)">
			<stop  offset="0" style="stop-color:#03B8FF"/>
			<stop  offset="1" style="stop-color:#FA52A0"/>
		</linearGradient>
		<path class="st1" d="M5,2.3L23.6,15l-4.6,6.8L0.4,9L5,2.3z"/>
		
			<linearGradient id="SVGID_4_" gradientUnits="userSpaceOnUse" x1="23.6818" y1="1012.3904" x2="27.3705" y2="999.7241" gradientTransform="matrix(1 0 0 -1 -12 1012)">
			<stop  offset="0" style="stop-color:#03B8FF"/>
			<stop  offset="1" style="stop-color:#FA52A0"/>
		</linearGradient>
		<path class="st2" d="M23.6,15c-1.6,2.3-7,1.4-12.1-2.2C6.3,9.3,3.5,4.6,5,2.3c1.6-2.3,7-1.4,12.1,2.2C22.3,7.9,25.1,12.7,23.6,15z
			"/>
		
			<linearGradient id="SVGID_5_" gradientUnits="userSpaceOnUse" x1="17.616" y1="1010.6239" x2="21.3047" y2="997.9576" gradientTransform="matrix(1 0 0 -1 -12 1012)">
			<stop  offset="0" style="stop-color:#03B8FF"/>
			<stop  offset="1" style="stop-color:#FA52A0"/>
		</linearGradient>
		<path class="st3" d="M19,21.7c-1.6,2.3-7,1.4-12.1-2.2s-8-8.2-6.4-10.6c1.6-2.3,7-1.4,12.1,2.2C17.7,14.7,20.5,19.4,19,21.7z"/>
		<path class="st4" d="M23.6,15C23.6,15,23.6,15,23.6,15l-4.6,6.8l0,0c-1.6,2.3-7,1.3-12.1-2.2c-1-0.7-1.9-1.4-2.8-2.2
			c0.7-0.1,1.6-0.5,2.5-1.5c1.6-1.7,2.4-2.1,3.1-2c0.7,0,1.5,0.7,2.8,2.4c1.3,1.7,3.1,2.2,4.2,1.3c0.1-0.1,0.2-0.1,0.3-0.2
			c0.9-0.7,1.2-1,2.9-4.2c0.4-0.8,1.8-2.1,3.7-1.5C24.1,13,24.1,14.1,23.6,15z"/>
		<path class="st5" d="M22.9,14.6c-1.4,2-6.3,1-11-2.3C7.1,9,4.3,4.8,5.7,2.8s6.3-1,11,2.3S24.2,12.6,22.9,14.6z M18.5,11.6
			c-0.7,1-3.1,0.5-5.5-1.1c-2.3-1.6-3.7-3.7-3-4.7c0.7-1,3.1-0.5,5.5,1.1C17.8,8.5,19.2,10.6,18.5,11.6z"/>
		<path class="st6" d="M4.6,4.6c0-0.1-0.1-0.2-0.2-0.1S4.2,4.6,4.2,4.7C4.3,5,4.4,5.2,4.4,5.4c0,0.1,0.1,0.2,0.2,0.1
			c0.1,0,0.2-0.1,0.1-0.2C4.7,5.1,4.7,4.9,4.6,4.6z"/>
		<path class="st6" d="M5.1,6.2C5.1,6.1,5,6,4.9,6.1S4.8,6.2,4.8,6.3c1.1,2.5,3.4,5.2,6.4,7.2c0.1,0.1,0.2,0,0.3,0
			c0.1-0.1,0-0.2,0-0.3C8.4,11.2,6.2,8.6,5.1,6.2z"/>
		<path class="st6" d="M17.2,16c-0.1,0-0.2,0-0.2,0.1c0,0.1,0,0.2,0.1,0.2c0.3,0.1,0.7,0.2,1,0.3c0.1,0,0.2,0,0.2-0.1
			c0-0.1,0-0.2-0.1-0.2C17.9,16.2,17.5,16.1,17.2,16z"/>
		<path class="st6" d="M19,16.4c-0.1,0-0.2,0.1-0.2,0.2c0,0.1,0.1,0.2,0.2,0.2c0.8,0.1,1.7,0.2,2.4,0.1c0.1,0,0.2-0.1,0.2-0.2
			c0-0.1-0.1-0.2-0.2-0.2C20.6,16.6,19.8,16.5,19,16.4z"/>
	</g>
</g>
</svg>
